X:1
T:Title
%%score ( 1 2 ) { 3 | 4 }
L:1/8
Q:1/4=110
M:4/4
K:E
V:1 treble nm="Grand Piano, Soprano"
V:2 treble 
V:3 bass nm="Choir Pad, Luella (Whitney)"
V:4 bass 
V:1
 [Ec]2 [CA]2 [CE]2 [^B,D]2 | [CE]4 [CA]4 | [=DB]3 [D^A] [DB]2 [Ec]2 | A4 E4 | %4
w: By~H.~N.~Whitney,~1867 * * *||||
 [Ec]2 [CA]2 [CE]2 [^B,D]2 | [CE]4 [EA]4 | [EG]3 [EG] [DA]2 [DF]2 | E8 | E2 E2 [DF]2 [=DG]2 | %9
w: |||||
 [=DB]4 [CA]4 | [Ec]3 [Ec] [Ee]2 [EA]2 | c4 B4 | [Ec]2 [CA]2 [CE]2 [^B,D]2 | %13
w: ||||
 [CE]2 [Ec]2 [EA]2 [=DF]2 | [CE]2 [Ec]2 [=Dc]3 [DB] | [CA]8 |] %16
w: |||
V:2
 x8 | x8 | x8 | C8 | x8 | x8 | x8 | x8 | x8 | x8 | x8 | E8 | x8 | x8 | x8 | x8 |] %16
V:3
 A,2 A,2 A,2 A,2 | A,4 E,4 | G,3 =G, ^G,2 G,2 | A,8 | A,2 A,2 A,2 A,2 | A,4 C4 | B,3 G, F,2 A,2 | %7
 G,8 | E,2 G,2 A,2 B,2 | G,4 A,4 | A,3 A, C2 A,2 | A,4 G,4 | A,2 A,2 A,2 A,2 | A,4 A,4 | %14
 A,2 A,2 G,3 G, | A,8 |] %16
V:4
 A,,2 A,,2 A,,2 A,,2 | A,,4 A,,4 | E,3 E, E,2 E,2 | A,,8 | A,,2 A,,2 A,,2 A,,2 | A,,4 A,,4 | %6
 B,,3 B,, B,,2 B,,2 | E,8 | z2 E,2 E,2 E,2 | E,4 A,,4 | z4 A,2 C,2 | E,8 | A,,2 A,,2 A,,2 A,,2 | %13
 A,,4 C,2 =D,2 | E,2 E,2 E,3 E, | A,,8 |] %16

